X: 9188
T: Daly's Mill
R: polka
M: 2/4
K: Gmajor
|:D|G>B de|dB B/^A/B/=A/|GB de|d2 g2|
GB de|dB B/^A/B/=A/|GE ED|G2 G:|
|:B/d/|ed B/c/B/A/|GE ED|G>F GB|d2 dg/f/|
ed B/c/B/A/|GE ED|G>F GA|G2- G:|

